!!!COM: Falla (y Matheu), Manuel de
!!!OTL: El retablo de maese Pedro (Master Peter's Puppet Show), Puppet-Opera in One Act
!!!OMV: IV: Los Pirineos (The Pyrenees)
!!!example: 320
!!!work: Fal-8
**kern	**kern	**kern	**kern	**kern	**kern	**kern	**kern
*part9	*part8	*part7	*part6	*part5	*part3	*part2	*part1
*staff9	*staff8	*staff7	*staff6	*staff5	*staff3	*staff2	*staff1
*I"Contrabass	*I"Violoncello	*I"Viola	*I"Violin II	*I"Violin I	*I"Timpani	*I"Trumpet in C	*I"Horn in F
*I'Cb.	*I'Vc.	*I'Vla.	*I'Vln. II	*I'Vln. I	*I'Timp.	*I'C Tpt.	*I'Hn.
*clefF4	*clefF4	*clefC3	*clefG2	*clefG2	*clefF4	*clefG2	*clefG2
*k[b-e-a-]	*k[b-e-a-]	*k[b-e-a-]	*k[b-e-a-]	*k[b-e-a-]	*	*k[b-e-a-]	*
*E-:	*E-:	*E-:	*E-:	*E-:	*	*E-:	*
*M6/8	*M6/8	*M6/8	*M6/8	*M6/8	*M6/8	*M6/8	*M6/8
*MM121	*MM121	*MM121	*MM121	*MM121	*MM121	*MM121	*MM121
=542	=542	=542	=542	=542	=542	=542	=542
8GGG'	8GG'	[2.E- [2.B-	[2.b-	[2.e- [2.ee-	8GG	([4.B-X	([4.G [4.e-X
8r	8r	.	.	.	8r	.	.
8GGG'	8GG'	.	.	.	8GG	.	.
8r	8r	.	.	.	8r	8.B-L]	8.GL] 8.e-]
8GGG'	8GG'	.	.	.	8GG	.	.
.	.	.	.	.	.	8.A-XJ	8.B-XJ 8.f
8r	8r	.	.	.	8r	.	.
=543	=543	=543	=543	=543	=543	=543	=543
8GGG'	8GG'	2.E-_ 2.B-_	2.b-_	2.e-_ 2.ee-_	8GG	4.B-X)	4.G) 4.e-X
8r	8r	.	.	.	8r	.	.
8GGG'	8GG'	.	.	.	8GG	.	.
8r	8r	.	.	.	8r	(4.A-X	(4.F 4.B-X
8GGG'	8GG'	.	.	.	8GG	.	.
8r	8r	.	.	.	8r	.	.
=544	=544	=544	=544	=544	=544	=544	=544
8GGG'	8GG'	2.E-_ 2.B-_	2.b-_	2.e-_ 2.ee-_	8GG	[2.B-X)	[2.G) [2.e-X
8r	8r	.	.	.	8r	.	.
8GGG'	8GG'	.	.	.	8GG	.	.
8r	8r	.	.	.	8r	.	.
8GGG'	8GG'	.	.	.	8GG	.	.
8r	8r	.	.	.	8r	.	.
=545	=545	=545	=545	=545	=545	=545	=545
8GGG'	8GG'	2.E-] 2.B-]	2.b-]	2.e-] 2.ee-]	8GG	2.B-X_	2.G_ 2.e-_
8r	8r	.	.	.	8r	.	.
8GGG'	8GG'	.	.	.	8GG	.	.
8r	8r	.	.	.	8r	.	.
8GGG'	8GG'	.	.	.	8GG	.	.
8r	8r	.	.	.	8r	.	.
=546	=546	=546	=546	=546	=546	=546	=546
8GGG'	8GG'	[2.E- [2.B-	[2.b-	[2.e- [2.ee-	8GG	2.B-X_	2.G_ 2.e-_
8r	8r	.	.	.	8r	.	.
8GGG'	8GG'	.	.	.	8GG	.	.
8r	8r	.	.	.	8r	.	.
8GGG'	8GG'	.	.	.	8GG	.	.
8r	8r	.	.	.	8r	.	.
=547	=547	=547	=547	=547	=547	=547	=547
8GGG'	8GG'	2.E-_ 2.B-_	2.b-_	2.e-_ 2.ee-_	8GG	2.B-X]	2.G] 2.e-]
8r	8r	.	.	.	8r	.	.
8GGG'	8GG'	.	.	.	8GG	.	.
8r	8r	.	.	.	8r	.	.
8GGG'	8GG'	.	.	.	8GG	.	.
8r	8r	.	.	.	8r	.	.
=548	=548	=548	=548	=548	=548	=548	=548
8GGG'	8GG'	2.E-_ 2.B-_	2.b-_	2.e-_ 2.ee-_	8GG	4.r	4.r
8r	8r	.	.	.	8r	.	.
8GGG'	8GG'	.	.	.	8GG	.	.
8r	8r	.	.	.	8r	(4.e-X	(4.B-X 4.g
8GGG'	8GG'	.	.	.	8GG	.	.
8r	8r	.	.	.	8r	.	.
=549	=549	=549	=549	=549	=549	=549	=549
8GGG'	8GG'	2.E-_ 2.B-_	2.b-_	2.e-_ 2.ee-_	8GG	4.B-X	2G 2e-X
8r	8r	.	.	.	8r	.	.
8GGG'	8GG'	.	.	.	8GG	.	.
8r	8r	.	.	.	8r	4.e-X)	.
8GGG'	8GG'	.	.	.	8GG	.	4B-X) 4f
8r	8r	.	.	.	8r	.	.
=	=	=	=	=	=	=	=
*-	*-	*-	*-	*-	*-	*-	*-
!!!system-decoration: [(s1,s2)][(s3)]s4[(s5,s6,s7,s8,s9)]
!!!CDT: 1876/11/23-1946/11/14
!!!CBL: Cádiz, Spain
!!!CDL: Alta Gracia, Argentina
!!!CNT: Spanish
!!!AGN: Stage; Theatrical
!!!MCN: Falla, Manuel de
!!!MDT: 1923/03/23
!!!MGN: Orquesta Bétia de Cámara
!!!MLC: Seville, Spain
!!!MPD: 1923
!!!MPN:
!!!ODT: 1923
!!!PDT: 1924
!!!excerpt-start-measure: 542
!!!excerpt-end-measure: 549
!!!excerpt-start-time: 1:03
!!!excerpt-end-time: 1:11
!!!EEV: 2020/01/27
!!!ONB: Converted from MusicXML on 2020/01/27
